apps/64/image-viewer.svg

<svg xmlns="http://www.w3.org/2000/svg" style="isolation:isolate" width="256" height="256"><defs><filter id="a" x="-200%" y="-200%" width="400%" height="400%" filterUnits="objectBoundingBox" color-interpolation-filters="sRGB"><feGaussianBlur xmlns="http://www.w3.org/2000/svg" in="SourceGraphic" stdDeviation="4.294"/><feOffset xmlns="http://www.w3.org/2000/svg" dy="4" result="pf_100_offsetBlur"/><feFlood xmlns="http://www.w3.org/2000/svg" flood-color="#000" flood-opacity=".4"/><feComposite xmlns="http://www.w3.org/2000/svg" in2="pf_100_offsetBlur" operator="in" result="pf_100_dropShadow"/><feBlend xmlns="http://www.w3.org/2000/svg" in="SourceGraphic" in2="pf_100_dropShadow"/></filter></defs><path d="M165.685 11.947c74.055 0 84.639 10.557 84.639 84.544v59.251c0 73.986-10.584 84.543-84.639 84.543h-75.37c-74.055 0-84.639-10.557-84.639-84.543V96.491c0-73.987 10.584-84.544 84.639-84.544h75.37z" fill="#F1F0E9" filter="url(#a)"/><path d="M243.924 39.23c5.061 12.646 6.4 30.94 6.4 57.261v25.842q-32.991 61.334-64.356 117.586c-6.167.262-12.91.366-20.283.366H137Q228.667 69 243.924 39.23z" fill="#DAD9CE"/><path d="M184.669 12.261c34.853 1.338 51.638 7.443 59.415 27.373Q223 80.333 139.333 240.285H90.315c-9.431 0-17.833-.171-25.315-.623C94 185.667 166.333 46.667 184.669 12.261z" fill="#C8C4B7"/><path d="M249.604 182.54c-3.332 49.864-19.935 57.745-83.919 57.745h-75.37c-63.999 0-80.594-7.884-83.921-57.778-5.191.634 239.086.679 243.21.033z" fill="#AEA795"/><path d="M185.002 12.274c56.642 2.231 65.322 17.213 65.322 84.217v59.251c0 73.986-10.584 84.543-84.639 84.543h-75.37c-9.284 0-17.57-.166-24.963-.602C100.333 174 173 34.667 185.002 12.274z" fill="#FFF" opacity=".05"/><path d="M135.822 11.918L46.455 183.205h48.93l89.177-170.923-48.74-.364z" fill="#DAD9CE"/><circle vector-effect="non-scaling-stroke" cx="183" cy="87" r="24" fill="#F9F9F9"/><path d="M47 183l47.635-91.628L142.27 183H47z" fill="#FFF"/><path d="M95 183l36-69 36 69H95z" fill="#F9F9F9"/><defs><filter id="b" x="-200%" y="-200%" width="400%" height="400%" filterUnits="objectBoundingBox" color-interpolation-filters="sRGB"><feGaussianBlur xmlns="http://www.w3.org/2000/svg" stdDeviation="1.531"/></filter></defs><path d="M114.875 53c-35.298 0-64 28.702-64 64s28.702 64 64 64c15.452 0 29.639-5.502 40.709-14.648l6.891 6.89-1.414 1.414 31.5 31.5 11.314-11.312-31.5-31.5-1.414 1.414-6.881-6.881c9.232-11.094 14.795-25.345 14.795-40.877 0-35.298-28.702-64-64-64zm0 8.137c30.901 0 55.863 24.962 55.863 55.863s-24.962 55.865-55.863 55.865S59.01 147.901 59.01 117c0-30.901 24.964-55.863 55.865-55.863z" opacity=".2" filter="url(#b)"/><path d="M154.47 163.24l8.49-8.48 12 12-8.49 8.48-12-12z" fill="#888"/><path d="M161.06 172.66l11.31-11.32 31.5 31.5-11.31 11.32-31.5-31.5z" fill="#3B3B3B"/><circle vector-effect="non-scaling-stroke" cx="114.875" cy="115" r="59.932" fill="#FFF" fill-opacity=".543"/><path d="M178.87 115c.01 8.55-1.7 17.02-5.03 24.9a64.207 64.207 0 0 1-13.72 20.35 64.218 64.218 0 0 1-20.34 13.72 63.976 63.976 0 0 1-24.91 5.03c-8.55.01-17.02-1.71-24.9-5.03a64.218 64.218 0 0 1-20.34-13.72 64.207 64.207 0 0 1-13.72-20.35 63.973 63.973 0 0 1-5.04-24.9c0-8.55 1.71-17.02 5.04-24.9 3.22-7.6 7.88-14.51 13.72-20.35a64.218 64.218 0 0 1 20.34-13.72 63.964 63.964 0 0 1 24.9-5.03c8.56-.01 17.03 1.71 24.91 5.03 7.6 3.23 14.51 7.88 20.34 13.72a64.207 64.207 0 0 1 13.72 20.35 63.783 63.783 0 0 1 5.03 24.9zm-8.13 0c0 7.47-1.49 14.86-4.39 21.73a55.84 55.84 0 0 1-11.98 17.76c-5.1 5.1-11.13 9.17-17.76 11.98a55.587 55.587 0 0 1-21.73 4.39h-.01c-7.46.01-14.85-1.48-21.73-4.39a55.952 55.952 0 0 1-17.76-11.98 55.84 55.84 0 0 1-11.98-17.76c-2.9-6.87-4.4-14.26-4.39-21.73a55.78 55.78 0 0 1 4.39-21.74 55.909 55.909 0 0 1 11.98-17.75c5.09-5.1 11.13-9.17 17.76-11.98 6.88-2.91 14.27-4.4 21.73-4.39a55.6 55.6 0 0 1 21.74 4.39 56.063 56.063 0 0 1 17.76 11.98 55.84 55.84 0 0 1 11.98 17.76c2.9 6.87 4.39 14.26 4.39 21.73z" fill-rule="evenodd" fill="#666"/><g opacity=".4"><linearGradient id="c" x1=".517" x2=".517" y2="1" gradientTransform="matrix(244.65 0 0 228.34 5.68 11.95)" gradientUnits="userSpaceOnUse"><stop offset="0%" stop-color="#fff"/><stop offset="12.5%" stop-opacity=".098" stop-color="#fff"/><stop offset="92.5%" stop-opacity=".098"/><stop offset="100%" stop-opacity=".498"/></linearGradient><path d="M165.068 11.951c4.328-.01 8.656.04 12.984.138 3.875.078 7.75.226 11.626.452 3.453.196 6.905.481 10.348.854 3.06.335 6.118.786 9.148 1.346a80.47 80.47 0 0 1 8.046 1.916 53.64 53.64 0 0 1 7.023 2.584 40.413 40.413 0 0 1 6.06 3.35 35.176 35.176 0 0 1 5.134 4.215 35.072 35.072 0 0 1 4.22 5.119 41.692 41.692 0 0 1 3.363 6.042 55.982 55.982 0 0 1 2.597 7.005 80.224 80.224 0 0 1 1.918 8.037 124.43 124.43 0 0 1 1.348 9.127c.374 3.439.659 6.878.856 10.326.226 3.861.373 7.732.462 11.593.088 4.323.138 8.646.128 12.96v58.21c.01 4.324-.04 8.637-.128 12.96a325.177 325.177 0 0 1-.462 11.593 200.984 200.984 0 0 1-.856 10.326 124.691 124.691 0 0 1-1.348 9.137 80.687 80.687 0 0 1-1.918 8.027 55.414 55.414 0 0 1-2.597 7.005 41.18 41.18 0 0 1-3.364 6.042 34.559 34.559 0 0 1-4.22 5.119 35.177 35.177 0 0 1-5.134 4.215 40.412 40.412 0 0 1-6.059 3.35 55.138 55.138 0 0 1-7.023 2.594 77.806 77.806 0 0 1-8.046 1.906 120 120 0 0 1-9.148 1.346c-3.443.373-6.895.658-10.348.854-3.875.226-7.75.374-11.626.462-4.328.088-8.656.138-12.984.128H90.942c-4.328.01-8.656-.04-12.984-.128a328.387 328.387 0 0 1-11.626-.462 203.003 203.003 0 0 1-10.348-.854 120 120 0 0 1-9.148-1.346 77.806 77.806 0 0 1-8.046-1.906 55.139 55.139 0 0 1-7.023-2.594 40.413 40.413 0 0 1-6.06-3.35 35.176 35.176 0 0 1-5.134-4.215 34.56 34.56 0 0 1-4.22-5.119 41.183 41.183 0 0 1-3.363-6.042 55.415 55.415 0 0 1-2.597-7.005 80.682 80.682 0 0 1-1.918-8.027 124.688 124.688 0 0 1-1.348-9.137 200.993 200.993 0 0 1-.856-10.326 325.212 325.212 0 0 1-.462-11.593 569.197 569.197 0 0 1-.128-12.96v-58.21c-.01-4.314.04-8.637.128-12.96.089-3.86.236-7.732.462-11.593.197-3.448.482-6.887.856-10.326.335-3.055.787-6.101 1.348-9.127a80.219 80.219 0 0 1 1.918-8.037 55.983 55.983 0 0 1 2.597-7.005 41.695 41.695 0 0 1 3.364-6.042 35.072 35.072 0 0 1 4.22-5.119 35.176 35.176 0 0 1 5.134-4.215 40.413 40.413 0 0 1 6.059-3.35 53.64 53.64 0 0 1 7.023-2.584 80.47 80.47 0 0 1 8.046-1.916 125.11 125.11 0 0 1 9.148-1.346c3.443-.373 6.895-.658 10.348-.854 3.875-.226 7.75-.374 11.626-.452 4.328-.098 8.656-.148 12.984-.138h74.126zm.01 4.009c4.298-.01 8.597.039 12.895.127 3.827.089 7.653.236 11.48.452 3.383.197 6.766.472 10.13.845 2.971.315 5.932.747 8.863 1.297a75.943 75.943 0 0 1 7.653 1.818 50.493 50.493 0 0 1 6.501 2.397 37.038 37.038 0 0 1 5.47 3.026 30.383 30.383 0 0 1 4.524 3.724 31.05 31.05 0 0 1 3.738 4.519 37.271 37.271 0 0 1 3.03 5.443 51.46 51.46 0 0 1 2.4 6.494 75.563 75.563 0 0 1 1.829 7.634c.54 2.928.974 5.875 1.298 8.842.374 3.36.65 6.73.846 10.11.217 3.822.374 7.634.453 11.456.088 4.293.137 8.577.137 12.87v58.212c0 4.293-.049 8.577-.137 12.87a317.503 317.503 0 0 1-.453 11.456c-.196 3.38-.472 6.75-.846 10.12a121.689 121.689 0 0 1-1.298 8.832 75.562 75.562 0 0 1-1.83 7.634 50.902 50.902 0 0 1-2.4 6.494 36.767 36.767 0 0 1-3.03 5.443 30.615 30.615 0 0 1-3.737 4.53 30.938 30.938 0 0 1-4.525 3.713 37.038 37.038 0 0 1-5.469 3.026 49.07 49.07 0 0 1-6.501 2.397 75.942 75.942 0 0 1-7.653 1.818c-2.931.55-5.892.982-8.863 1.306-3.364.364-6.747.649-10.13.836-3.827.216-7.653.373-11.48.452-4.298.098-8.597.137-12.895.137H90.932c-4.298 0-8.597-.04-12.895-.137a320.093 320.093 0 0 1-11.48-.452 193.696 193.696 0 0 1-10.13-.836 116.71 116.71 0 0 1-8.863-1.306 75.942 75.942 0 0 1-7.653-1.818 49.07 49.07 0 0 1-6.501-2.397 37.038 37.038 0 0 1-5.47-3.026 30.938 30.938 0 0 1-4.524-3.714 30.615 30.615 0 0 1-3.738-4.529 36.766 36.766 0 0 1-3.03-5.443 50.903 50.903 0 0 1-2.4-6.494 75.567 75.567 0 0 1-1.829-7.634 121.69 121.69 0 0 1-1.298-8.832c-.374-3.37-.65-6.74-.846-10.12a317.535 317.535 0 0 1-.453-11.456 623.851 623.851 0 0 1-.137-12.87V97.014c0-4.293.049-8.577.137-12.87.079-3.822.236-7.634.453-11.456.197-3.38.472-6.75.846-10.11.324-2.967.757-5.914 1.298-8.842a75.568 75.568 0 0 1 1.83-7.634 51.46 51.46 0 0 1 2.4-6.494 37.27 37.27 0 0 1 3.03-5.443 31.05 31.05 0 0 1 3.737-4.52 30.384 30.384 0 0 1 4.525-3.723 37.039 37.039 0 0 1 5.469-3.026 50.494 50.494 0 0 1 6.501-2.397 75.943 75.943 0 0 1 7.653-1.818c2.931-.55 5.892-.982 8.863-1.297 3.364-.373 6.747-.648 10.13-.845a344.71 344.71 0 0 1 11.48-.452c4.298-.088 8.597-.137 12.895-.127H165.078z" fill-rule="evenodd" fill="url(#c)"/></g></svg>

<?xml version="1.0" standalone="no"?><!-- Generator: Gravit.io --><svg xmlns="http://www.w3.org/2000/svg" xmlns:xlink="http://www.w3.org/1999/xlink" style="isolation:isolate" viewBox="0 0 256 256" width="256" height="256"><defs><filter id="sY1j80aAyRz5T6uY9JGh4p4ndwTuzhAo" x="-200%" y="-200%" width="400%" height="400%" filterUnits="objectBoundingBox" color-interpolation-filters="sRGB"><feGaussianBlur xmlns="http://www.w3.org/2000/svg" in="SourceGraphic" stdDeviation="4.294"/><feOffset xmlns="http://www.w3.org/2000/svg" dx="0" dy="4" result="pf_100_offsetBlur"/><feFlood xmlns="http://www.w3.org/2000/svg" flood-color="#000000" flood-opacity="0.4"/><feComposite xmlns="http://www.w3.org/2000/svg" in2="pf_100_offsetBlur" operator="in" result="pf_100_dropShadow"/><feBlend xmlns="http://www.w3.org/2000/svg" in="SourceGraphic" in2="pf_100_dropShadow" mode="normal"/></filter></defs><g filter="url(#sY1j80aAyRz5T6uY9JGh4p4ndwTuzhAo)"><path d=" M 165.685 11.947 C 239.74 11.947 250.324 22.504 250.324 96.491 L 250.324 155.742 C 250.324 229.728 239.74 240.285 165.685 240.285 L 90.315 240.285 C 16.26 240.285 5.676 229.728 5.676 155.742 L 5.676 96.491 C 5.676 22.504 16.26 11.947 90.315 11.947 L 165.685 11.947 L 165.685 11.947 Z " id="Path" fill="rgb(255,118,106)"/></g><g opacity="0.4"><path d=" M 243.924 39.23 C 248.985 51.876 250.324 70.17 250.324 96.491 L 250.324 122.333 Q 217.333 183.667 185.968 239.919 C 179.801 240.181 173.058 240.285 165.685 240.285 L 139.25 240 Q 228.667 69 243.924 39.23 Z " id="Path" fill="rgb(255,255,255)"/></g><g opacity="0.6"><path d=" M 184.669 12.261 C 219.522 13.599 236.307 19.704 244.084 39.634 Q 223 80.333 139.333 240.285 L 90.315 240.285 C 80.884 240.285 72.482 240.114 65 239.662 C 94 185.667 166.333 46.667 184.669 12.261 Z " id="Path" fill="rgb(255,255,255)"/></g><path d=" M 249.604 182.54 C 246.272 232.404 229.669 240.285 165.685 240.285 L 90.315 240.285 C 26.316 240.285 9.721 232.401 6.394 182.507 C 1.203 183.141 245.48 183.186 249.604 182.54 L 249.604 182.54 Z " id="Path" fill="rgb(210,47,122)"/><g opacity="0.05"><path d=" M 184.669 12.274 C 241.311 14.505 249.991 29.487 249.991 96.491 L 249.991 155.742 C 249.991 229.728 239.407 240.285 165.352 240.285 L 89.982 240.285 C 80.698 240.285 72.412 240.119 65.019 239.683 C 100 174 172.667 34.667 184.669 12.274 Z " id="Path" fill="rgb(255,255,255)"/></g><g opacity="0.2"><path d=" M 135.822 11.918 L 46.455 183.205 L 95.385 183.205 L 184.562 12.282 L 135.822 11.918 L 135.822 11.918 Z " id="Path" fill="rgb(255,255,255)"/></g><circle vector-effect="non-scaling-stroke" cx="183" cy="87" r="24" id="Ellipse" fill="rgb(249,249,249)"/><path d=" M 47 183 L 94.635 91.372 L 142.27 183 L 47 183 L 47 183 Z " id="Path" fill="rgb(63,63,63)"/><path d=" M 95 183 L 131 114 L 167 183 L 95 183 L 95 183 Z " id="Path" fill="rgb(63,63,63)"/><defs><filter id="y8FJ5ukH5SfaBSApGU7Nbw5MLYuP88CP" x="-200%" y="-200%" width="400%" height="400%" filterUnits="objectBoundingBox" color-interpolation-filters="sRGB"><feGaussianBlur xmlns="http://www.w3.org/2000/svg" stdDeviation="1.531"/></filter></defs><g opacity="0.2" filter="url(#y8FJ5ukH5SfaBSApGU7Nbw5MLYuP88CP)"><path d=" M 114.875 53 C 79.577 53 50.875 81.702 50.875 117 C 50.875 152.298 79.577 181 114.875 181 C 130.327 181 144.514 175.498 155.584 166.352 L 162.475 173.242 L 161.061 174.656 L 192.561 206.156 L 203.875 194.844 L 172.375 163.344 L 170.961 164.758 L 164.08 157.877 C 173.312 146.783 178.875 132.532 178.875 117 C 178.875 81.702 150.173 53 114.875 53 L 114.875 53 Z  M 114.875 61.137 C 145.776 61.137 170.738 86.099 170.738 117 C 170.738 147.901 145.776 172.865 114.875 172.865 C 83.974 172.865 59.01 147.901 59.01 117 C 59.01 86.099 83.974 61.137 114.875 61.137 Z " id="Compound Path" fill="rgb(0,0,0)"/></g><path d=" M 154.47 163.24 L 162.96 154.76 L 174.96 166.76 L 166.47 175.24 L 154.47 163.24 L 154.47 163.24 Z " id="Path" fill="rgb(136,136,136)"/><path d=" M 161.06 172.66 L 172.37 161.34 L 203.87 192.84 L 192.56 204.16 L 161.06 172.66 L 161.06 172.66 Z " id="Path" fill="rgb(59,59,59)"/><circle vector-effect="non-scaling-stroke" cx="114.875" cy="115" r="59.93200000000001" id="Ellipse" fill="rgb(255,255,255)" fill-opacity="0.543"/><path d=" M 178.87 115 C 178.88 123.55 177.17 132.02 173.84 139.9 C 170.618 147.502 165.959 154.412 160.12 160.25 C 154.285 166.088 147.379 170.746 139.78 173.97 C 131.897 177.296 123.426 179.006 114.87 179 C 106.32 179.01 97.85 177.29 89.97 173.97 C 82.371 170.746 75.465 166.088 69.63 160.25 C 63.791 154.412 59.132 147.502 55.91 139.9 C 52.582 132.02 50.868 123.553 50.87 115 C 50.87 106.45 52.58 97.98 55.91 90.1 C 59.13 82.5 63.79 75.59 69.63 69.75 C 75.465 63.912 82.371 59.254 89.97 56.03 C 97.85 52.705 106.317 50.995 114.87 51 C 123.43 50.99 131.9 52.71 139.78 56.03 C 147.38 59.26 154.29 63.91 160.12 69.75 C 165.959 75.588 170.618 82.498 173.84 90.1 C 177.169 97.979 178.88 106.447 178.87 115 L 178.87 115 Z  M 170.74 115 C 170.74 122.47 169.25 129.86 166.35 136.73 C 163.54 143.368 159.472 149.399 154.37 154.49 C 149.27 159.59 143.24 163.66 136.61 166.47 C 129.735 169.378 122.345 170.871 114.88 170.86 L 114.87 170.86 C 107.41 170.87 100.02 169.38 93.14 166.47 C 86.504 163.658 80.473 159.59 75.38 154.49 C 70.278 149.399 66.21 143.368 63.4 136.73 C 60.5 129.86 59 122.47 59.01 115 C 59.003 107.533 60.496 100.14 63.4 93.26 C 66.212 86.627 70.28 80.599 75.38 75.51 C 80.47 70.41 86.51 66.34 93.14 63.53 C 100.02 60.62 107.41 59.13 114.87 59.14 C 122.338 59.128 129.732 60.622 136.61 63.53 C 143.245 66.345 149.275 70.412 154.37 75.51 C 159.472 80.601 163.54 86.632 166.35 93.27 C 169.25 100.14 170.74 107.53 170.74 115 Z " fill-rule="evenodd" id="Compound Path" fill="rgb(102,102,102)"/><g id="Group" style="opacity:0.4;"><g opacity="0.4"><linearGradient id="_lgradient_26" x1="0.5169999634453897" y1="0.0000011256553389474289" x2="0.5169999634453895" y2="0.9999988480691453" gradientTransform="matrix(244.651,0,0,228.341,5.68,11.95)" gradientUnits="userSpaceOnUse"><stop offset="0%" stop-opacity="1" style="stop-color:rgb(255,255,255)"/><stop offset="12.5%" stop-opacity="0.098" style="stop-color:rgb(255,255,255)"/><stop offset="92.499901888811%" stop-opacity="1" style="stop-color:rgb(0,0,0)"/><stop offset="99.99988480691454%" stop-opacity="1" style="stop-color:rgb(0,0,0)"/></linearGradient><path d=" M 165.068 11.951 C 169.396 11.941 173.724 11.991 178.052 12.089 C 181.927 12.167 185.802 12.315 189.678 12.541 C 193.131 12.737 196.583 13.022 200.026 13.395 C 203.086 13.73 206.144 14.181 209.174 14.741 C 211.887 15.241 214.573 15.881 217.22 16.657 C 219.618 17.354 221.965 18.217 224.243 19.241 C 226.355 20.182 228.383 21.303 230.303 22.591 C 232.143 23.831 233.862 25.242 235.437 26.806 C 237.002 28.375 238.415 30.089 239.657 31.925 C 240.943 33.842 242.068 35.863 243.02 37.967 C 244.041 40.242 244.908 42.582 245.617 44.972 C 246.394 47.616 247.034 50.299 247.535 53.009 C 248.097 56.034 248.547 59.078 248.883 62.136 C 249.257 65.575 249.542 69.014 249.739 72.462 C 249.965 76.323 250.112 80.194 250.201 84.055 C 250.289 88.378 250.339 92.701 250.329 97.015 L 250.329 155.225 C 250.339 159.549 250.289 163.862 250.201 168.185 C 250.116 172.052 249.962 175.917 249.739 179.778 C 249.542 183.227 249.257 186.67 248.883 190.104 C 248.547 193.165 248.097 196.213 247.535 199.241 C 247.033 201.948 246.393 204.627 245.617 207.268 C 244.91 209.659 244.042 211.999 243.02 214.273 C 242.07 216.378 240.945 218.399 239.656 220.315 C 238.417 222.153 237.004 223.867 235.436 225.434 C 233.861 226.998 232.142 228.409 230.302 229.649 C 228.382 230.937 226.355 232.058 224.243 232.999 C 221.963 234.022 219.617 234.888 217.22 235.593 C 214.574 236.37 211.888 237.007 209.174 237.499 C 206.143 238.065 203.091 238.514 200.026 238.845 C 196.583 239.218 193.131 239.503 189.678 239.699 C 185.803 239.925 181.928 240.073 178.052 240.161 C 173.724 240.249 169.396 240.299 165.068 240.289 L 90.942 240.289 C 86.614 240.299 82.286 240.249 77.958 240.161 C 74.08 240.076 70.204 239.922 66.332 239.699 C 62.876 239.503 59.425 239.218 55.984 238.845 C 52.919 238.514 49.867 238.065 46.836 237.499 C 44.122 237.007 41.436 236.37 38.79 235.593 C 36.393 234.888 34.047 234.022 31.767 232.999 C 29.655 232.058 27.627 230.937 25.707 229.649 C 23.867 228.409 22.148 226.998 20.573 225.434 C 19.005 223.867 17.592 222.153 16.353 220.315 C 15.065 218.399 13.94 216.378 12.99 214.273 C 11.968 211.999 11.1 209.659 10.393 207.268 C 9.617 204.627 8.977 201.948 8.475 199.241 C 7.913 196.213 7.463 193.165 7.127 190.104 C 6.753 186.67 6.468 183.227 6.271 179.778 C 6.048 175.917 5.894 172.052 5.809 168.185 C 5.717 163.866 5.674 159.545 5.681 155.225 L 5.681 97.015 C 5.671 92.701 5.721 88.378 5.809 84.055 C 5.898 80.195 6.045 76.323 6.271 72.462 C 6.468 69.014 6.753 65.575 7.127 62.136 C 7.462 59.081 7.914 56.035 8.475 53.009 C 8.976 50.299 9.616 47.616 10.393 44.972 C 11.102 42.582 11.969 40.242 12.99 37.967 C 13.942 35.863 15.067 33.842 16.354 31.925 C 17.596 30.089 19.009 28.375 20.574 26.806 C 22.149 25.242 23.868 23.831 25.708 22.591 C 27.628 21.303 29.655 20.182 31.767 19.241 C 34.045 18.217 36.392 17.354 38.79 16.657 C 41.437 15.881 44.123 15.241 46.836 14.741 C 49.868 14.18 52.919 13.731 55.984 13.395 C 59.427 13.022 62.879 12.737 66.332 12.541 C 70.207 12.315 74.082 12.167 77.958 12.089 C 82.286 11.991 86.614 11.941 90.942 11.951 L 165.068 11.951 L 165.068 11.951 Z  M 165.078 15.96 C 169.376 15.95 173.675 15.999 177.973 16.087 C 181.8 16.176 185.626 16.323 189.453 16.539 C 192.836 16.736 196.219 17.011 199.583 17.384 C 202.554 17.699 205.515 18.131 208.446 18.681 C 211.027 19.154 213.581 19.761 216.099 20.499 C 218.318 21.148 220.49 21.949 222.6 22.896 C 224.505 23.749 226.335 24.761 228.07 25.922 C 229.694 27.015 231.21 28.262 232.594 29.646 C 233.98 31.031 235.231 32.544 236.332 34.165 C 237.492 35.892 238.506 37.712 239.362 39.608 C 240.307 41.716 241.109 43.886 241.762 46.102 C 242.504 48.613 243.114 51.161 243.591 53.736 C 244.131 56.664 244.565 59.611 244.889 62.578 C 245.263 65.938 245.539 69.308 245.735 72.688 C 245.952 76.51 246.109 80.322 246.188 84.144 C 246.276 88.437 246.325 92.721 246.325 97.014 L 246.325 155.226 C 246.325 159.519 246.276 163.803 246.188 168.096 C 246.106 171.917 245.955 175.736 245.735 179.552 C 245.539 182.932 245.263 186.302 244.889 189.672 C 244.564 192.631 244.132 195.577 243.591 198.504 C 243.114 201.079 242.503 203.627 241.761 206.138 C 241.109 208.355 240.307 210.524 239.361 212.632 C 238.507 214.529 237.493 216.35 236.331 218.075 C 235.233 219.701 233.982 221.218 232.594 222.605 C 231.206 223.983 229.691 225.226 228.069 226.318 C 226.335 227.479 224.505 228.491 222.6 229.344 C 220.492 230.295 218.32 231.096 216.099 231.741 C 213.581 232.479 211.027 233.086 208.446 233.559 C 205.515 234.109 202.554 234.541 199.583 234.865 C 196.219 235.229 192.836 235.514 189.453 235.701 C 185.626 235.917 181.8 236.074 177.973 236.153 C 173.675 236.251 169.376 236.29 165.078 236.29 L 90.932 236.29 C 86.634 236.29 82.335 236.25 78.037 236.153 C 74.208 236.071 70.381 235.92 66.557 235.701 C 63.174 235.511 59.796 235.232 56.427 234.865 C 53.457 234.543 50.501 234.108 47.564 233.559 C 44.983 233.086 42.429 232.479 39.911 231.741 C 37.69 231.096 35.518 230.295 33.41 229.344 C 31.505 228.491 29.675 227.479 27.94 226.318 C 26.318 225.226 24.803 223.982 23.416 222.604 C 22.028 221.218 20.776 219.701 19.678 218.075 C 18.516 216.35 17.502 214.529 16.648 212.632 C 15.702 210.524 14.9 208.355 14.248 206.138 C 13.506 203.627 12.896 201.079 12.419 198.504 C 11.878 195.577 11.446 192.631 11.121 189.672 C 10.747 186.302 10.471 182.932 10.275 179.552 C 10.055 175.736 9.904 171.917 9.822 168.096 C 9.732 163.807 9.686 159.516 9.685 155.226 L 9.685 97.014 C 9.685 92.721 9.734 88.437 9.822 84.144 C 9.901 80.322 10.058 76.51 10.275 72.688 C 10.472 69.308 10.747 65.938 11.121 62.578 C 11.445 59.611 11.878 56.664 12.419 53.736 C 12.896 51.161 13.507 48.613 14.249 46.102 C 14.902 43.886 15.704 41.716 16.649 39.608 C 17.505 37.712 18.519 35.892 19.679 34.165 C 20.779 32.544 22.031 31.03 23.416 29.645 C 24.801 28.261 26.316 27.014 27.941 25.922 C 29.675 24.761 31.505 23.749 33.41 22.896 C 35.52 21.949 37.692 21.148 39.911 20.499 C 42.429 19.761 44.983 19.154 47.564 18.681 C 50.495 18.131 53.456 17.699 56.427 17.384 C 59.791 17.011 63.174 16.736 66.557 16.539 C 70.381 16.325 74.208 16.174 78.037 16.087 C 82.335 15.999 86.634 15.95 90.932 15.96 L 165.078 15.96 L 165.078 15.96 Z " fill-rule="evenodd" id="Compound Path" fill="url(#_lgradient_26)"/></g></g></svg>
